packages/kaspersky-hexa-ui-icons/src/iconsSVGs/24/DataFeeds.svg

<svg width="24" height="24" viewBox="0 0 24 24" fill="none" xmlns="http://www.w3.org/2000/svg">
<path d="M5.51051 2.95636C4.95832 2.94601 4.5023 3.38525 4.49195 3.93744C4.4816 4.48963 4.92085 4.94566 5.47304 4.956C8.86873 5.01965 12.2421 6.34623 14.8326 8.9367C17.423 11.5272 18.7496 14.9005 18.8133 18.2962C18.8236 18.8484 19.2796 19.2877 19.8318 19.2773C20.384 19.267 20.8232 18.8109 20.8129 18.2587C20.74 14.3665 19.2176 10.4933 16.2468 7.52249C13.2759 4.55166 9.40275 3.0293 5.51051 2.95636Z" fill="black"/>
<path d="M4.95655 9.37301C7.39443 9.30449 9.85075 10.1998 11.71 12.0591C13.5693 13.9184 14.4647 16.3747 14.3961 18.8126C14.3806 19.3647 14.8156 19.8248 15.3677 19.8403C15.9197 19.8558 16.3798 19.4209 16.3954 18.8688C16.4787 15.9041 15.3883 12.909 13.1242 10.6449C10.8602 8.38085 7.86504 7.29047 4.90036 7.3738C4.34829 7.38931 3.91333 7.84943 3.92885 8.4015C3.94436 8.95357 4.40448 9.38853 4.95655 9.37301Z" fill="black"/>
<path d="M4.68393 13.8023C6.08045 13.6469 7.52792 14.1043 8.59645 15.1728C9.66499 16.2414 10.1224 17.6888 9.96695 19.0854C9.90585 19.6343 10.3013 20.1288 10.8502 20.1899C11.3991 20.251 11.8936 19.8555 11.9547 19.3066C12.1745 17.3321 11.5271 15.275 10.0107 13.7586C8.49427 12.2422 6.43718 11.5948 4.46266 11.8146C3.91376 11.8757 3.51833 12.3702 3.57943 12.9191C3.64053 13.468 4.13503 13.8634 4.68393 13.8023Z" fill="black"/>
<path d="M3.82769 19.9422C4.70081 20.8153 6.11642 20.8153 6.98955 19.9422C7.86267 19.0691 7.86267 17.6535 6.98955 16.7803C6.11642 15.9072 4.70081 15.9072 3.82769 16.7803C2.95457 17.6535 2.95457 19.0691 3.82769 19.9422Z" fill="black"/>
</svg>

<svg xmlns="http://www.w3.org/2000/svg" width="24" height="24" fill="none" viewBox="0 0 24 24"><path fill="#000" fill-rule="evenodd" d="M5.5106 2.9564c-.5522-.0104-1.0082.4289-1.0185.981-.0104.5522.4289 1.0083.981 1.0186 3.3958.0636 6.7691 1.3902 9.3596 3.9807s3.917 5.9638 3.9807 9.3595c.0103.5522.4664.9915 1.0185.9811.5522-.0103.9915-.4664.9811-1.0186-.0729-3.8922-1.5953-7.7654-4.5661-10.7362S9.4029 3.0293 5.5106 2.9564m-.554 6.4166c2.438-.0685 4.8943.8269 6.7536 2.6861s2.7546 4.3156 2.6861 6.7535c-.0155.5521.4194 1.0122.9715 1.0277s1.0122-.4194 1.0277-.9715c.0833-2.9647-1.0071-5.9598-3.2711-8.2239-2.2641-2.264-5.2592-3.3544-8.224-3.2711-.552.0155-.987.4756-.9714 1.0277s.4756.987 1.0277.9715m-.2725 4.4293c1.3965-.1554 2.844.302 3.9125 1.3706s1.5259 2.516 1.3705 3.9125c-.0611.5489.3343 1.0434.8832 1.1045s1.0434-.3344 1.1045-.8833c.2198-1.9745-.4276-4.0316-1.944-5.548s-3.5735-2.1638-5.548-1.944c-.549.0611-.9443.5556-.8832 1.1045.061.5489.5556.9444 1.1045.8832m-.8563 6.1399c.8731.8731 2.2888.8731 3.1619 0s.873-2.2887 0-3.1619c-.8731-.8731-2.2888-.8731-3.1619 0s-.8731 2.2888 0 3.1619"/></svg>
